icons/24px/testTube.svg

<?xml version="1.0" encoding="UTF-8"?>
<svg id="Layer_1" data-name="Layer 1" xmlns="http://www.w3.org/2000/svg" viewBox="0 0 24 24">
  <defs>
    <style>
      .cls-1 {
        fill-rule: evenodd;
        stroke-width: 0px;
      }
    </style>
  </defs>
  <path class="cls-1" d="m7,2c-1.1046,0-2,.8954-2,2v2c0,1.1046.8954,2,2,2v9c0,2.7614,2.2386,5,5,5s5-2.2386,5-5v-9c1.1046,0,2-.8954,2-2v-2c0-1.1046-.8954-2-2-2H7Zm2,15v-9h6v2h-2.6c-.2209,0-.4.1791-.4.4v1.2c0,.2209.1791.4.4.4h2.6v2h-2.6c-.2209,0-.4.1791-.4.4v1.2c0,.2209.1791.4.4.4h2.6v1c0,1.6569-1.3431,3-3,3s-3-1.3431-3-3Zm8-13H7v2h10v-2Z"/>
</svg>

<svg width="24" height="24" viewBox="0 0 24 24" fill="none" xmlns="http://www.w3.org/2000/svg">
<path fill-rule="evenodd" clip-rule="evenodd" d="M7 2C5.89543 2 5 2.89543 5 4V6C5 7.10457 5.89543 8 7 8V17C7 19.7614 9.23858 22 12 22C14.7614 22 17 19.7614 17 17V8C18.1046 8 19 7.10457 19 6V4C19 2.89543 18.1046 2 17 2H7ZM9 17V8H15V10H12.4C12.1791 10 12 10.1791 12 10.4V11.6C12 11.8209 12.1791 12 12.4 12H15V14H12.4C12.1791 14 12 14.1791 12 14.4V15.6C12 15.8209 12.1791 16 12.4 16H15V17C15 18.6569 13.6569 20 12 20C10.3431 20 9 18.6569 9 17ZM17 4H7V6H17V4Z" fill="black"/>
</svg>
